0-9/9line911.com icon.svg

<svg xmlns="http://www.w3.org/2000/svg" xml:space="preserve" id="Layer_1" x="0" y="0" style="enable-background:new 0 0 612 545" version="1.1" viewBox="0 0 612 545"><style>.st0{fill:#32325d}</style><path d="M425.28 284.25h-78.07l-43.34-61.48c-1.87-2.65-5.05-3.62-7.88-2.2-1.86.93-3.2 2.88-3.79 5.12l-17.79 68.21-26.63-262.04c-.42-4.12-3.31-7.01-6.9-6.85-3.58.15-6.29 3.27-6.44 7.42l-18.07 476.18-16.39-236.74c-.24-3.4-2.24-6.12-5.1-6.92-2.86-.8-5.72.55-7.27 3.46l-15.97 29.89-17.67-34.9c-1.21-2.38-3.37-3.83-5.8-3.83-1.82 0-3.56.94-4.85 2.44l-19.2 22.26H6.28v8.6h118.15c1.79 0 3.47-.81 4.74-2.27l18.89-21.9 17.8 35.16c1.2 2.37 3.33 3.8 5.7 3.83 2.36.03 4.53-1.34 5.77-3.67l15.44-28.9 17.14 247.68c.29 4.21 3.16 7.25 6.8 7.14 3.65-.08 6.41-3.2 6.57-7.42l18.19-479.31 26 255.73c.37 3.69 2.87 6.5 6.06 6.82 3.19.32 6.07-1.93 7-5.49L299 229.45l42.7 60.57c1.28 1.81 3.17 2.85 5.18 2.85h258.85v-8.6H425.28z" class="st0"/><text class="st0" style="font-size:255.6716px;font-family:'Quasimoda-SemiBold'" transform="matrix(1.1 0 0 1.05 334.222 276.04)">9</text></svg>

<?xml version="1.0" ?>
<svg xmlns="http://www.w3.org/2000/svg" viewBox="0 0 612 545">
    <path d="M 425.28,284.25 L 347.21,284.25 L 303.87,222.77 C 302.0,220.12 298.82,219.15 295.99,220.57 C 294.13,221.5 292.79,223.45 292.2,225.69 L 274.41,293.9 L 247.78,31.86 C 247.36,27.74 244.47,24.85 240.88,25.01 C 237.3,25.16 234.59,28.28 234.44,32.43 L 216.37,508.61 L 199.98,271.87 C 199.74,268.47 197.74,265.75 194.88,264.95 C 192.02,264.15 189.16,265.5 187.61,268.41 L 171.64,298.3 L 153.97,263.4 C 152.76,261.02 150.6,259.57 148.17,259.57 C 146.35,259.57 144.61,260.51 143.32,262.01 L 124.12,284.27 L 6.28,284.27 L 6.28,292.87 L 124.43,292.87 C 126.22,292.87 127.9,292.06 129.17,290.6 L 148.06,268.7 L 165.86,303.86 C 167.06,306.23 169.19,307.66 171.56,307.69 C 173.92,307.72 176.09,306.35 177.33,304.02 L 192.77,275.12 L 209.91,522.8 C 210.2,527.01 213.07,530.05 216.71,529.94 C 220.36,529.86 223.12,526.74 223.28,522.52 L 241.47,43.21 L 267.47,298.94 C 267.84,302.63 270.34,305.44 273.53,305.76 C 276.72,306.08 279.6,303.83 280.53,300.27 L 299.0,229.45 L 341.7,290.02 C 342.98,291.83 344.87,292.87 346.88,292.87 L 605.73,292.87 L 605.73,284.27 L 425.28,284.27 L 425.28,284.25" class="st0" />
    <path transform="scale(1, -1) translate(330.3 -275.9)" d="M 50.22,4.65 L 49.6,8.37 L 80.6,49.91 Q 101.37,77.19 116.87,94.55 L 116.25,94.86 Q 108.19,89.59 98.89,86.8 Q 89.59,84.01 80.91,84.01 Q 62,84.01 47.275,92.69 Q 32.55,101.37 24.18,117.025 Q 15.81,132.68 15.81,153.14 Q 15.81,175.15 24.8,191.425 Q 33.79,207.7 50.685,216.69 Q 67.58,225.68 90.21,225.68 Q 123.07,225.68 141.98,206.15 Q 160.89,186.62 160.89,153.45 Q 160.89,132.37 150.66,112.065 Q 140.43,91.76 118.11,60.76 L 70.06,-6.82 L 50.22,4.65 M 122.295,119.195 Q 134.54,132.68 134.54,155 Q 134.54,176.7 121.985,190.03 Q 109.43,203.36 88.66,203.36 Q 67.58,203.36 54.715,189.875 Q 41.85,176.39 41.85,155 Q 41.85,132.06 54.56,118.885 Q 67.27,105.71 89.59,105.71 Q 110.05,105.71 122.295,119.195" />
</svg>
